images/COW.svg

<svg height="250" viewBox="0 0 250 250" width="250" xmlns="http://www.w3.org/2000/svg" xmlns:xlink="http://www.w3.org/1999/xlink"><linearGradient id="a" gradientUnits="userSpaceOnUse" x1="5.715" x2="239.2575" y1="162.5" y2="78.37"><stop offset="0" stop-color="#3b3c44"/><stop offset=".521" stop-color="#1c1d22"/><stop offset=".766" stop-color="#0e0d0d"/><stop offset="1"/></linearGradient><linearGradient id="b" gradientTransform="matrix(180.585937 0 0 159.167969 34.582031 53.75)" gradientUnits="userSpaceOnUse" x1="0" x2=".99996" y1=".50003" y2=".50003"><stop offset=".344" stop-color="#fff"/><stop offset=".495" stop-color="#8d9aca"/><stop offset="1" stop-color="#ff784a"/></linearGradient><path d="m250 125c0 69.035156-55.964844 125-125 125s-125-55.964844-125-125 55.964844-125 125-125 125 55.964844 125 125zm0 0" fill="url(#a)"/><path d="m208.148438 105.984375-24.886719-4.0625 18.347656-7.667969 5.117187-20.433594-6.140624-10.902343-31.382813-9.167969 14.976563 21.449219h-.019532l.167969.242187-8.882813 2.21875-27.164062-18.644531-23.402344 2.78125-23.40625-2.78125-27.160156 18.644531-8.894531-2.222656.164062-.234375h-.003906l14.972656-21.453125-31.375 9.167969-6.140625 10.902343 5.117188 20.433594 18.34375 7.667969-24.882813 4.0625-7.03125 18.945313 20.722657 10.011718 17.386718-6.125 2.457032 18.238282 12.0625 28.097656 5.964843 15.488281 30.515625 21.421875v.035156l1.164063.820313.042969-.027344.023437.015625 1.152344-.820312v-.027344l30.5-21.414063 5.964843-15.488281 12.0625-28.101562 2.457032-18.238282 17.386718 6.128906 20.722657-10.011718-7.027344-18.945313zm-11.03125-38.707031 2.835937 5.035156-10.1875 1.882812-7.949219-11.390624 15.296875 4.472656zm-19.59375 31.457031v-16.28125l9.988281-2.492187 7.949219 11.277343zm15.507812-19.902344 7.460938-1.378906-2.210938 8.832031zm1.109375 50.535157-16.613281-5.851563v-17.3125l26.828125 4.386719 4.355469 11.742187-14.566407 7.039063zm-47.179687-65.007813 25.398437 17.4375v14.691406l-16.566406 8.605469-26.898438-38.585938zm5.921874 121.515625-23.695312-6.570312 19.34375-15.878907 7.542969 14.175781zm-32.3125-6.570312-23.699218 6.570312-3.1875-8.273438 7.542968-14.175781zm-40.402343-33.632813-2.492188-18.421875 19.269531-5.035156 6.988282 23.925781-5.808594 12.125-6.945312 13.054687-11.007813-25.648437zm20.257812-29.730469-2.285156-7.660156 26.738281-38.570312 26.734375 38.570312-2.28125 7.660156zm39.039063 33-8.359375 22.117188-6.226563 5.109375-6.226562-5.109375-8.359375-22.117188zm-30.839844-5.15625-6.628906-22.691406h45.765625l-6.628907 22.691406zm12.238281-77.277344-26.898437 38.585938-16.566406-8.605469v-14.691406l25.398437-17.433594 18.070313 2.148438zm27.640625 123.5-23.625 16.585938-23.628906-16.585938 23.628906-6.550781zm21.082032-44.339843-11.007813 25.652343-6.945313-13.054687-5.808593-12.128906 6.988281-23.925781 19.269531 5.039062-2.492187 18.417969zm-113.96875-16.300781-14.5625-7.039063 4.355468-11.742187 26.824219-4.382813v17.3125l-16.617187 5.847656zm-4.140626-43.082032-2.210937-8.835937 7.460937 1.382812zm16.460938-23.480468-7.949219 11.390624-10.183593-1.882812 2.835937-5.035156zm-13.640625 28.433593 7.945313-11.277343 9.988281 2.492187v16.28125zm0 0" fill="url(#b)"/></svg>

<svg xmlns="http://www.w3.org/2000/svg" xmlns:xlink="http://www.w3.org/1999/xlink" width="250px" height="250px" viewBox="0 0 250 250" version="1.1">
<defs>
<linearGradient id="linear0" gradientUnits="userSpaceOnUse" x1="0.02286" y1="0.65" x2="0.95703" y2="0.31348" gradientTransform="matrix(250,0,0,250,0,0)">
<stop offset="0" style="stop-color:rgb(23.137255%,23.529412%,26.666668%);stop-opacity:1;"/>
<stop offset="0.521" style="stop-color:rgb(10.980392%,11.372549%,13.333334%);stop-opacity:1;"/>
<stop offset="0.766" style="stop-color:rgb(5.490196%,5.098039%,5.098039%);stop-opacity:1;"/>
<stop offset="1" style="stop-color:rgb(0%,0%,0%);stop-opacity:1;"/>
</linearGradient>
<linearGradient id="linear1" gradientUnits="userSpaceOnUse" x1="0" y1="0.50003" x2="0.99996" y2="0.50003" gradientTransform="matrix(180.585937,0,0,159.167969,34.582031,53.75)">
<stop offset="0.344" style="stop-color:rgb(100%,100%,100%);stop-opacity:1;"/>
<stop offset="0.495" style="stop-color:rgb(55.29412%,60.392159%,79.215688%);stop-opacity:1;"/>
<stop offset="1" style="stop-color:rgb(100%,47.058824%,29.019609%);stop-opacity:1;"/>
</linearGradient>
</defs>
<g id="surface1">
<path style=" stroke:none;fill-rule:nonzero;fill:url(#linear0);" d="M 250 125 C 250 194.035156 194.035156 250 125 250 C 55.964844 250 0 194.035156 0 125 C 0 55.964844 55.964844 0 125 0 C 194.035156 0 250 55.964844 250 125 Z M 250 125 "/>
<path style=" stroke:none;fill-rule:nonzero;fill:url(#linear1);" d="M 208.148438 105.984375 L 183.261719 101.921875 L 201.609375 94.253906 L 206.726562 73.820312 L 200.585938 62.917969 L 169.203125 53.75 L 184.179688 75.199219 L 184.160156 75.199219 L 184.328125 75.441406 L 175.445312 77.660156 L 148.28125 59.015625 L 124.878906 61.796875 L 101.472656 59.015625 L 74.3125 77.660156 L 65.417969 75.4375 L 65.582031 75.203125 L 65.578125 75.203125 L 80.550781 53.75 L 49.175781 62.917969 L 43.035156 73.820312 L 48.152344 94.253906 L 66.496094 101.921875 L 41.613281 105.984375 L 34.582031 124.929688 L 55.304688 134.941406 L 72.691406 128.816406 L 75.148438 147.054688 L 87.210938 175.152344 L 93.175781 190.640625 L 123.691406 212.0625 L 123.691406 212.097656 L 124.855469 212.917969 L 124.898438 212.890625 L 124.921875 212.90625 L 126.074219 212.085938 L 126.074219 212.058594 L 156.574219 190.644531 L 162.539062 175.15625 L 174.601562 147.054688 L 177.058594 128.816406 L 194.445312 134.945312 L 215.167969 124.933594 L 208.140625 105.988281 Z M 197.117188 67.277344 L 199.953125 72.3125 L 189.765625 74.195312 L 181.816406 62.804688 L 197.113281 67.277344 Z M 177.523438 98.734375 L 177.523438 82.453125 L 187.511719 79.960938 L 195.460938 91.238281 Z M 193.03125 78.832031 L 200.492188 77.453125 L 198.28125 86.285156 Z M 194.140625 129.367188 L 177.527344 123.515625 L 177.527344 106.203125 L 204.355469 110.589844 L 208.710938 122.332031 L 194.144531 129.371094 Z M 146.960938 64.359375 L 172.359375 81.796875 L 172.359375 96.488281 L 155.792969 105.09375 L 128.894531 66.507812 Z M 152.882812 185.875 L 129.1875 179.304688 L 148.53125 163.425781 L 156.074219 177.601562 Z M 120.570312 179.304688 L 96.871094 185.875 L 93.683594 177.601562 L 101.226562 163.425781 Z M 80.167969 145.671875 L 77.675781 127.25 L 96.945312 122.214844 L 103.933594 146.140625 L 98.125 158.265625 L 91.179688 171.320312 L 80.171875 145.671875 Z M 100.425781 115.941406 L 98.140625 108.28125 L 124.878906 69.710938 L 151.613281 108.28125 L 149.332031 115.941406 Z M 139.464844 148.941406 L 131.105469 171.058594 L 124.878906 176.167969 L 118.652344 171.058594 L 110.292969 148.941406 Z M 108.625 143.785156 L 101.996094 121.09375 L 147.761719 121.09375 L 141.132812 143.785156 Z M 120.863281 66.507812 L 93.964844 105.09375 L 77.398438 96.488281 L 77.398438 81.796875 L 102.796875 64.363281 L 120.867188 66.511719 Z M 148.503906 190.007812 L 124.878906 206.59375 L 101.25 190.007812 L 124.878906 183.457031 Z M 169.585938 145.667969 L 158.578125 171.320312 L 151.632812 158.265625 L 145.824219 146.136719 L 152.8125 122.210938 L 172.082031 127.25 L 169.589844 145.667969 Z M 55.617188 129.367188 L 41.054688 122.328125 L 45.410156 110.585938 L 72.234375 106.203125 L 72.234375 123.515625 L 55.617188 129.363281 Z M 51.476562 86.285156 L 49.265625 77.449219 L 56.726562 78.832031 Z M 67.9375 62.804688 L 59.988281 74.195312 L 49.804688 72.3125 L 52.640625 67.277344 Z M 54.296875 91.238281 L 62.242188 79.960938 L 72.230469 82.453125 L 72.230469 98.734375 Z M 54.296875 91.238281 "/>
</g>
</svg>
